X: 1 
T:The crooked road to Dublin 
M:4/4 
K:G 
F|G2G2 FGAF|G2FG AdcA|G2AG FGAg|fdcA dBcA|G2G2
FGAF| G2FG AdcA|G2AG FGAg|fdcA dBcA|| dgg2 fgaf|dgg2 agfe|dgg2 fgag|fdcA dBcA|dgg2 fgaf|
dgg2 a2ga|aggf gaag|fdcA dBcA||
